assets/icons/office/drawing-filled.svg

<?xml version="1.0" encoding="UTF-8" standalone="no"?>
<svg
   viewBox="0 0 24 24"
   height="24"
   id="svg7384"
   version="1.1"
   width="24"
   sodipodi:docname="drawing-filled.svg"
   inkscape:version="1.2 (1:1.2.1+202207142221+cd75a1ee6d)"
   xmlns:inkscape="http://www.inkscape.org/namespaces/inkscape"
   xmlns:sodipodi="http://sodipodi.sourceforge.net/DTD/sodipodi-0.dtd"
   xmlns="http://www.w3.org/2000/svg"
   xmlns:svg="http://www.w3.org/2000/svg"
   xmlns:rdf="http://www.w3.org/1999/02/22-rdf-syntax-ns#"
   xmlns:cc="http://creativecommons.org/ns#"
   xmlns:dc="http://purl.org/dc/elements/1.1/">
  <sodipodi:namedview
     pagecolor="#ffffff"
     bordercolor="#666666"
     borderopacity="1"
     objecttolerance="10"
     gridtolerance="10"
     guidetolerance="10"
     inkscape:pageopacity="0"
     inkscape:pageshadow="2"
     inkscape:window-width="1920"
     inkscape:window-height="1043"
     id="namedview21"
     showgrid="true"
     inkscape:zoom="31.420593"
     inkscape:cx="14.258165"
     inkscape:cy="9.261442"
     inkscape:window-x="0"
     inkscape:window-y="0"
     inkscape:window-maximized="1"
     inkscape:current-layer="svg7384"
     inkscape:document-rotation="0"
     inkscape:showpageshadow="2"
     inkscape:pagecheckerboard="0"
     inkscape:deskcolor="#d1d1d1">
    <inkscape:grid
       type="xygrid"
       id="grid930"
       originx="0"
       originy="0" />
    <inkscape:grid
       type="xygrid"
       id="grid649"
       dotted="true"
       spacingx="0.5"
       spacingy="0.5"
       empspacing="10" />
  </sodipodi:namedview>
  <metadata
     id="metadata20854">
    <rdf:RDF>
      <cc:Work
         rdf:about="">
        <dc:format>image/svg+xml</dc:format>
        <dc:type
           rdf:resource="http://purl.org/dc/dcmitype/StillImage" />
      </cc:Work>
    </rdf:RDF>
  </metadata>
  <defs
     id="defs7386">
    <linearGradient
       id="linearGradient5606"
       inkscape:swatch="solid">
      <stop
         id="stop5608"
         offset="0"
         style="stop-color:#000000;stop-opacity:1;" />
    </linearGradient>
    <linearGradient
       id="linearGradient4526"
       inkscape:swatch="solid">
      <stop
         id="stop4528"
         offset="0"
         style="stop-color:#ffffff;stop-opacity:1;" />
    </linearGradient>
    <linearGradient
       id="linearGradient3600-4"
       inkscape:swatch="gradient">
      <stop
         id="stop3602-7"
         offset="0"
         style="stop-color:#f4f4f4;stop-opacity:1" />
      <stop
         id="stop3604-6"
         offset="1"
         style="stop-color:#dbdbdb;stop-opacity:1" />
    </linearGradient>
  </defs>
  <path
     id="path955"
     style="color:#000000;fill:#808080;fill-opacity:1"
     d="m 6.4550781,2 c -0.9685779,0.00898 -1.7178208,0.073271 -2.3378906,0.4453125 -0.4133799,0.2480281 -0.7199382,0.6559099 -0.8886719,1.1621094 -0.1687333,0.5062005 -0.2285156,1.1148035 -0.2285156,1.8925781 v 13 c 0,0.777774 0.058559,1.391311 0.25,1.908203 0.1914415,0.516894 0.5529647,0.926872 1.0273438,1.164063 0.9487573,0.474377 2.2226642,0.427734 4.2226562,0.427734 h 7 c 1.499995,0 2.556053,0.05074 3.382812,-0.445312 0.413382,-0.248029 0.719941,-0.655908 0.888672,-1.16211 0.168734,-0.5062 0.228516,-1.114804 0.228516,-1.892578 v -10.5 h -5 -1 v -6 h -6.5 c -0.3749983,0 -0.7220625,-0.00299 -1.0449219,0 z m 8.5449219,0.2929688 v 4.7070312 h 4.707031 z m 0.5,7.7070312 c 0.828427,0 1.5,0.671573 1.5,1.5 0,0.828427 -0.671573,1.5 -1.5,1.5 -0.828427,0 -1.5,-0.671573 -1.5,-1.5 0,-0.828427 0.671573,-1.5 1.5,-1.5 z m -6,2 2,3.5 1.5,-2 3,5.5 h -10 z"
     sodipodi:nodetypes="ssssssssssssccccssccccssssscccccc" />
</svg>

<svg height="24" width="24" xmlns="http://www.w3.org/2000/svg"><path style="color:#000;fill:gray;fill-opacity:1" d="M6.455 2c-.968.009-1.718.073-2.338.445-.413.248-.72.656-.888 1.162C3.059 4.114 3 4.722 3 5.5v13c0 .778.059 1.391.25 1.908.191.517.553.927 1.027 1.164.95.475 2.223.428 4.223.428h7c1.5 0 2.556.05 3.383-.445.413-.248.72-.656.888-1.162.17-.507.229-1.115.229-1.893V8h-6V2H7.5c-.375 0-.722-.003-1.045 0zM15 2.293V7h4.707zM15.5 10a1.5 1.5 0 1 1 0 3 1.5 1.5 0 0 1 0-3zm-6 2 2 3.5 1.5-2 3 5.5H6z"/></svg>
